!!!!SEGMENT: Lhe2007-Ave_regina_celorum.krn
!!!id: Lhe2007
!!!AGN: Motet
!!!SCT: Perkins (1969)
!!!voices: 4
!!!COM: Jean Lhéritier
!!!OTL: Ave regina celorum
**kern	**kern	**kern	**kern
*part4	*part3	*part2	*part1
*staff4	*staff3	*staff2	*staff1
*I"Bassus	*I"Tenor	*I"Altus	*I"Superius
*I'B	*I'T	*I'A	*I'S
*clefF4	*clefGv2	*clefG2	*clefG2
*k[]	*k[]	*k[]	*k[]
*C:	*C:	*C:	*C:
*M2/1	*M2/1	*M2/1	*M2/1
*met(C|)	*met(C|)	*met(C|)	*met(C|)
!!Section: Prima pars: Ave regina celorum
!!!OMD: Prima pars: Ave regina celorum
=1	=1	=1	=1
1C	1.c	0r	0r
2E	.	.	.
2F	4B	.	.
.	4A	.	.
=2	=2	=2	=2
2.G	2B	0r	0r
.	2G	.	.
4E	.	.	.
4F	2A	.	.
4E	.	.	.
4D	[2c	.	.
4C	.	.	.
=3	=3	=3	=3
1D	2c]	1.f	1r
.	2B	.	.
[1C	[1c	.	[1cc
.	.	4e	.
.	.	4d	.
=4	=4	=4	=4
1C]	1c]	2e	2cc]
.	.	2c	4b
.	.	.	4a
1r	1r	2d	2b
.	.	2e	2g
=5	=5	=5	=5
1r	0r	4f	2a
.	.	4e	.
.	.	4d	1cc
.	.	4c	.
1G	.	2d	.
.	.	[2e	2b
=6	=6	=6	=6
1A	1c	4e]	1cc
.	.	4c	.
.	.	1f	.
1B	1d	.	2r
.	.	4e	2g
.	.	4d	.
=7	=7	=7	=7
1A	1e	1c	1a
1G	1r	1d	2b
.	.	.	[2dd
=8	=8	=8	=8
1r	0r	2e	4dd]
.	.	.	4cc
.	.	2f	1cc
1G	.	1d	.
.	.	.	[2b
=9	=9	=9	=9
1A	1c	2c	4b]
.	.	.	4a
.	.	1e	1a
1B	1d	.	.
.	.	[2d	2g
=10	=10	=10	=10
1A	1e	2d]	2.a
.	.	2c	.
.	.	.	4g
1B	1d	2d	4f
.	.	.	4e
.	.	[2g	2d
=11	=11	=11	=11
2.c	1e	4g]	2r
.	.	4f	.
.	.	4e	2g
4B	.	4d	.
2A	2.f	4c	2a
.	.	4A	.
2F	.	2a	[2cc
.	4e	.	.
=12	=12	=12	=12
1G	1d	1g	2cc]
.	.	.	2b
[1C	[1c	2r	1cc
.	.	[2g	.
=13	=13	=13	=13
1C]	1c]	2g]	2r
.	.	2e	1cc
1r	1r	1f	.
.	.	.	2a
=14	=14	=14	=14
0r	0r	2d	1b
.	.	1e	.
.	.	.	2g
.	.	4d	[2cc
.	.	4c	.
=15	=15	=15	=15
1G	1r	1d	2cc]
.	.	.	2b
2E	1c	1c	2g
[2F	.	.	[2a
=16	=16	=16	=16
2F]	2A	1d	2a]
2D	2.B	.	4g
.	.	.	4f
2.G	.	1r	1g
.	4G	.	.
.	[2d	.	.
4F	.	.	.
=17	=17	=17	=17
2E	2d]	1c	0r
2F	1c	.	.
1D	.	1d	.
.	2B	.	.
=18	=18	=18	=18
1C	2c	1e	1g
.	1g	.	.
1r	.	[1d	1a
.	2f	.	.
=19	=19	=19	=19
1G	1g	2d]	1b
.	.	1e	.
1A	1c	.	2a
.	.	[2f	[2a
=20	=20	=20	=20
1B-X	1d	2f]	2a]
.	.	4e	2g
.	.	4d	.
2A	[1e	2c	2a
2G	.	[2g	2b
=21	=21	=21	=21
2A	1e]	2g]	2cc
1c	.	4f	2g
.	.	4e	.
.	1d	1f	2a
2B	.	.	2b
=22	=22	=22	=22
2c	1e	1e	2g
1A	.	.	2.cc
.	2.f	2r	.
.	.	.	4a
2B	.	2d	[2dd
.	4d	.	.
=23	=23	=23	=23
2c	2e	1a	2dd]
2F	2f	.	1cc
1G	1d	2.g	.
.	.	.	2b
.	.	4f	.
=24	=24	=24	=24
2C	1r	2e	2cc
1c	.	4c	1ee
.	.	4d	.
.	[1c	4e	.
.	.	4f	.
2B	.	[2g	2dd
=25	=25	=25	=25
1A	1c]	2g]	2.cc
.	.	2f#i	.
.	.	.	8bL
.	.	.	8aJ
1G	1d	1g	1b
=26	=26	=26	=26
2r	1.e	2.c	0r
2.c	.	.	.
.	.	4B	.
.	.	4A	.
4B	.	4G	.
4A	[2f	[2c	.
4G	.	.	.
=27	=27	=27	=27
2A	4f]	2c]	0r
.	4e	.	.
2E	1e	1B	.
1F	.	.	.
.	2d	2A	.
=28	=28	=28	=28
1E	[0e	1B	1.g
1C	.	1c	.
.	.	.	2f
=29	=29	=29	=29
1c	1e]	2r	2e
.	.	1g	2c
1B	1r	.	1d
.	.	2f	.
=30	=30	=30	=30
2c	1r	2e	2c
2A	.	2c	1cc
1G	[1g	1d	.
.	.	.	2b
=31	=31	=31	=31
0C	2g]	1c	2cc
.	2f	.	2a
.	2e	2r	1g
.	2c	[2c	.
=32	=32	=32	=32
2.G	1d	2c]	2r
.	.	2B	1g
4F	.	.	.
2E	2.c	2c	.
2C	.	2e	4f
.	4B	.	4e
=33	=33	=33	=33
4D	1A	2d	1f
4C	.	.	.
1c	.	2c	.
.	1G	1d	1g
2B	.	.	.
=34	=34	=34	=34
1c	1.g	1e	2r
.	.	.	2cc
1G	.	2d	2b
.	2f	2B	[2dd
=35	=35	=35	=35
1A	2e	4c	2dd]
.	.	4d	.
.	2c	4e	1cc
.	.	4f	.
1G	1d	1g	.
.	.	.	2b
=36	=36	=36	=36
1C	0c	2r	0cc
.	.	1g	.
1c	.	.	.
.	.	2e	.
=37	=37	=37	=37
1A	0r	2.f	0r
.	.	4e	.
1B	.	2d	.
.	.	[2g	.
=38	=38	=38	=38
2G	0r	2g]	0r
2.A	.	4f	.
.	.	4e	.
.	.	4f	.
4G	.	4e	.
[2c	.	4d	.
.	.	4c	.
=39	=39	=39	=39
2c]	2r	1d	1r
2B	1g	.	.
1c	.	1c	1cc
.	2e	.	.
=40	=40	=40	=40
0r	2.f	0r	1a
.	4e	.	.
.	2d	.	1b
.	[2g	.	.
=41	=41	=41	=41
1r	2g]	0r	2g
.	4f	.	2.a
.	4e	.	.
1F	2f	.	.
.	.	.	4g
.	2e	.	[2cc
=42	=42	=42	=42
1G	1d	1r	2cc]
.	.	.	2.b
1A	1c	1c	.
.	.	.	4a
.	.	.	[2a
=43	=43	=43	=43
1B-i	1r	1d	2a]
.	.	.	2g
1A	1c	2e	1a
.	.	[2c	.
=44	=44	=44	=44
0G	1d	2c]	1r
.	.	4B	.
.	.	4A	.
.	1e	1B	1g
=45	=45	=45	=45
1F	1f	1c	1a
1c	1e	2r	2.g
.	.	[2g	.
.	.	.	4a
=46	=46	=46	=46
0G	0d	2g]	2b
.	.	2g	1cc
.	.	1g	.
.	.	.	2b
=	=	=	=
00C	00c	00g	00cc
=||	=||	=||	=||
*M2/1	*M2/1	*M2/1	*M2/1
*met(C|)	*met(C|)	*met(C|)	*met(C|)
!!Section: Secunda pars: Gaude gloriosa
!!!OMD: Secunda pars: Gaude gloriosa
1.c	1c	0r	0r
.	2.e	.	.
2B	.	.	.
.	4d	.	.
=47	=47	=47	=47
2A	4e	1r	1r
.	4f	.	.
2G	1g	.	.
1A	.	1c	[1cc
.	2f#i	.	.
=48	=48	=48	=48
1G	1g	2.e	2cc]
.	.	.	2b
.	.	4d	.
1c	2r	4e	2a
.	.	4f	.
.	2e	[2g	2g
=49	=49	=49	=49
1r	2c	2g]	1a
.	2d	2f	.
[1c	1e	2.g	[1g
.	.	4f	.
=50	=50	=50	=50
2c]	1r	2e	1g]
2B	.	2d	.
1A	2r	1c	1r
.	[2f	.	.
=51	=51	=51	=51
1G	2f]	1B	2r
.	2e	.	2g
1F	2d	1A	2a
.	2c	.	[2cc
=52	=52	=52	=52
1r	1d	1G	2cc]
.	.	.	2b
2r	1c	[1g	2.ee
[2c	.	.	.
.	.	.	4dd
=53	=53	=53	=53
2c]	1G	2g]	4cc
.	.	.	4b
2B	.	2d	2.dd
1A	1c	2e	.
.	.	.	4cc
.	.	2f	[2cc
=54	=54	=54	=54
1G	1d	2.g	2cc]
.	.	.	2b
.	.	4f	.
2r	1c	2e	1cc
[2c	.	2c	.
=55	=55	=55	=55
2c]	2r	1d	0r
2B	1f	.	.
1A	.	1c	.
.	2e	.	.
=56	=56	=56	=56
2B	2d	0r	0r
2G	1e	.	.
2A	.	.	.
[2c	4d	.	.
.	4c	.	.
=57	=57	=57	=57
2c]	1d	2r	1r
2B	.	1f	.
1c	1c	.	2r
.	.	2e	[2cc
=58	=58	=58	=58
1G	2r	0d	2cc]
.	1g	.	2b
1r	.	.	1a
.	2f	.	.
=59	=59	=59	=59
1G	2e	1B	1g
.	2d	.	.
[1A	2f	2.c	1r
.	[2e	.	.
.	.	4d	.
=60	=60	=60	=60
2A]	2e]	4e	0r
.	.	4f	.
2.B-i	4d	1g	.
.	4c	.	.
.	2d	.	.
4A	.	.	.
4G	[2c	[2f	.
4F	.	.	.
=61	=61	=61	=61
1G	2c]	2f]	1g
.	2B	2e	.
2.F	1c	1f	1a
4E	.	.	.
=62	=62	=62	=62
4D	1d	2r	1b
4C	.	.	.
2D	.	2f	.
2C	1e	2g	2.cc
[2c	.	2a	.
.	.	.	4b
=63	=63	=63	=63
2c]	2.f	1d	4a
.	.	.	4g
2B	.	.	1dd
.	4d	.	.
2c	2e	1a	.
2F	2f	.	[2cc
=64	=64	=64	=64
1G	1d	1g	2cc]
.	.	.	2b
1r	1c	1e	[1cc
=65	=65	=65	=65
2.C	2r	1r	0cc]
.	1G	.	.
4D	.	.	.
2E	.	2.c	.
2F	2A	.	.
.	.	4d	.
=66	=66	=66	=66
2E	2B	2e	0r
2.A	1c	1f	.
4G	.	.	.
4F	[2B	[2e	.
4E	.	.	.
=67	=67	=67	=67
1F	2B]	2e]	2r
.	2A	2d	1a
1E	2B	1e	.
.	[2c	.	2g
=68	=68	=68	=68
0r	4c]	2A	2a
.	4B	.	.
.	4A	2.e	1cc
.	4G	.	.
.	2A	.	.
.	.	4d	.
.	2B	[2g	[2b
=69	=69	=69	=69
1r	2c	2g]	2b]
.	2d	2f	2a
2r	2G	2.g	1b
[2G	[2d	.	.
.	.	8fL	.
.	.	8eJ	.
=70	=70	=70	=70
2G]	4d]	1d	1r
.	4c	.	.
2F	4B	.	.
.	4A	.	.
2E	2B	1r	[1g
2C	2c	.	.
=71	=71	=71	=71
1D	1A	2.d	2g]
.	.	.	2f
.	.	4c	.
1E	1G	2B	2e
.	.	2G	2c
=72	=72	=72	=72
1F	1r	1A	1d
2.E	2.g	1B	4e
.	.	.	4f
.	.	.	4g
4F	4f	.	4a
=73	=73	=73	=73
2G	2e	1r	2b
2A	2c	.	1cc
1G	1d	[1g	.
.	.	.	2b
=74	=74	=74	=74
2r	2e	2g]	0cc
2.A	2.c	2f	.
.	.	2e	.
4G	4B	.	.
2E	2G	2c	.
=75	=75	=75	=75
2F	2A	1d	2r
2G	2B	.	2g
4C	2G	1e	2.g
4D	.	.	.
4E	[2g	.	.
4F	.	.	4a
=76	=76	=76	=76
4G	2g]	2r	4b
4A	.	.	4cc
2B	2f	2d	2.dd
2c	2e	2g	.
.	.	.	4cc
2A	2c	2f	[2cc
=77	=77	=77	=77
1G	1d	1g	2cc]
.	.	.	2b
2r	1e	2g	1cc
[2A	.	[2c	.
=78	=78	=78	=78
2A]	2r	2c]	0r
2G	1e	2B	.
2A	.	2c	.
2B	2d	4G	.
.	.	4A	.
=79	=79	=79	=79
2G	2e	4B	1r
.	.	4c	.
2F	2.f	1d	.
1A	.	.	2r
.	4e	.	.
.	4d	[2c	[2ee
.	4c	.	.
=80	=80	=80	=80
1G	1d	2c]	2ee]
.	.	2B	2dd
2C	1c	4c	[1ee
.	.	4d	.
[2c	.	4e	.
.	.	4f	.
=81	=81	=81	=81
4c]	1r	2g	2ee]
4A	.	.	.
2.d	.	4d	2.ff
.	.	4e	.
.	2r	4f	.
4c	.	4g	4ee
4B	[2e	[2a	4dd
4A	.	.	4cc
=82	=82	=82	=82
1B	2e]	2a]	1dd
.	2d	2g	.
2A	2e	1a	2cc
2F	[2f	.	[2dd
=83	=83	=83	=83
1A	4f]	1f	4dd]
.	4e	.	4cc
.	4d	.	1cc
.	4c	.	.
1G	1d	1g	.
.	.	.	2b
=84	=84	=84	=84
1C	1c	2r	1cc
.	.	1g	.
1D	2r	.	1a
.	[2d	2f	.
=85	=85	=85	=85
1r	2d]	1a	2r
.	2c	.	1cc
2r	1e	1g	.
[2G	.	.	2b
=86	=86	=86	=86
2G]	1d	2r	1dd
2F	.	1f	.
1A	2r	.	1cc
.	2A	2e	.
=87	=87	=87	=87
2.G	2B	1.g	1b
.	1d	.	.
4F	.	.	.
2E	.	.	2r
4D	[2c	4f	2cc
4C	.	4e	.
=88	=88	=88	=88
1D	2c]	1f	2a
.	2B	.	2b
2r	1c	2e	2g
2E	.	2g	[2cc
=89	=89	=89	=89
2F	1d	2a	2cc]
2G	.	2.g	2b
2C	2.c	.	2cc
.	.	4f	.
[2c	.	4e	4c
.	4B	4d	4d
=90	=90	=90	=90
4c]	4A	2c	4e
4B	4G	.	4f
4A	1d	2B	1g
4G	.	.	.
1A	.	1c	.
.	[2c	.	2f#i
=91	=91	=91	=91
1G	2c]	1d	0g
.	2B	.	.
2.C	2.e	1c	.
4D	8dL	.	.
.	8cJ	.	.
=92	=92	=92	=92
2E	4B	1r	0r
.	4c	.	.
1F	1d	.	.
.	.	1c	.
2E	[2c	.	.
=93	=93	=93	=93
1D	2c]	1d	1r
.	2B	.	.
1C	1c	2e	1g
.	.	[2g	.
=94	=94	=94	=94
0r	0r	2g]	1a
.	.	2f	.
.	.	2e	2b
.	.	[2f	[2dd
=95	=95	=95	=95
1r	0r	4f]	4dd]
.	.	4e	4cc
.	.	4d	1cc
.	.	4c	.
1G	.	2d	.
.	.	[2e	2b
=96	=96	=96	=96
1A	1c	2e]	1cc
.	.	1f	.
1B-X	1d	.	1r
.	.	[2g	.
=97	=97	=97	=97
2.c	1e	4g]	0r
.	.	4f	.
.	.	4e	.
4B-i	.	4d	.
4A	2.f	2c	.
4G	.	.	.
[2B-i	.	[2d	.
.	4e	.	.
=98	=98	=98	=98
4B-]	4d	4d]	1r
4A	4c	4e	.
4G	1c	1f	.
4F	.	.	.
1G	.	.	1g
.	2B	2e	.
=99	=99	=99	=99
2F	1.c	1f	2.a
1A	.	.	.
.	.	.	4b
.	.	2r	2cc
2G	2B	[2g	[2dd
=100	=100	=100	=100
1A	1c	2g]	4dd]
.	.	.	4cc
.	.	2f#i	1cc
1G	1d	1g	.
.	.	.	2b
=101	=101	=101	=101
00Cl	00cl	00gl	00ccl
==	==	==	==
*-	*-	*-	*-
!!!system-decoration: [*]
!!!RDF**kern: i = editorial accidental
!!!RDF**kern: l = terminal long
!!!ENC: Benjamin Ory
!!!END: 2023/1/19
!!!EED: Benjamin Ory
!!!EEV: 2023/01/19
!!!YEC: Copyright 2023 Benjamin Ory, All Rights Reserved
!!!ONB: Translated from MusicXML on 2023/01/19
